X: 455
T:Larkin's Beehives
T:Dominic Rooney's Reel
R:reel
C:Paddy O'Brien
S:Mike Rafferty
N:This is Mike Rafferty's setting
B:transcribed by Joanie Madden for the Comhaltas convention
B:in Parsippany, NJ, 1999
D:Mike and Mary Rafferty, the Old Fireside Music #15
Z:Lesl
M:C
L:1/8
N:Posted to the woodenflute mailing list November 2001
K:G
{c}BGBd edge|dzBG AGE2|{c}BGBd edge|dBAc BGGz|
{c}BGBd edge|dzBG AGEd|{c}BBGB ABGB|dBAc BGGz:||
{c}BGBd eg~g2|e~a2f {a}gedB|GBdB eBdB|ABGB AzGA|
{c}BGBd eg~g2|e~a2f {a}gedc|BzGB ABGB|dBAc  BGGz:||
<end>
<start>
